img/slide12/global_2003.svg

<svg height="180" viewBox="0 0 180 180" width="180" xmlns="http://www.w3.org/2000/svg"><path d="m92 116 .0168572-5.067742c10.7008488-1.060662 19.0665988-10.317176 19.0665988-21.579392 0-5.2356701-1.806398-10.0363779-4.815785-13.7827156l3.499394-3.5701504c3.885958 4.6685675 6.232935 10.7281487 6.232935 17.352866 0 14.058401-10.572505 25.580179-24 26.647134zm0-37v-5c1.7315656 1.328089 3.0414094 3.0514198 4 5zm0 9v-4h6.2199693c.4125679 1.3037836.6629226 2.6523974.7800307 4zm4 13c-.963408 1.964914-2.2752594 3.697829-4 5v-5zm-4-5v-4h7c-.1180194 1.337716-.3739352 2.6902655-.7917653 4zm11.628458-8c-.095068-1.3492879-.301566-2.6921716-.628458-4h3.779709c.608976 1.2549086 1.02587 2.5974551 1.220291 4zm-.628458 8c.345704-1.3279393.567447-2.6754319.672159-4h4.327841c-.1921 1.4014328-.604019 2.7442056-1.205728 4zm-5-21c1.9186474 1.0409401 3.613085 2.4010614 5 4h-2.694193c-.6162701-1.414329-1.3787466-2.7596664-2.305807-4zm2.252623 26h2.747377c-1.384988 1.602331-3.0807103 2.961737-5 4 .8926554-1.238319 1.64205-2.58682 2.252623-4zm-8.2369698-37c6.0800164.4100985 11.6142318 2.5070713 15.9843468 5.7513904l-3.764997 3.2486096c-3.393852-2.4251947-7.612378-4.0116002-12.235003-4.3959558zm-4.0345974 52c-6.0773725-.410521-11.6111297-2.508185-15.9810558-5.75302l3.7670073-3.24698c3.3922421 2.424507 7.6114386 4.011165 12.2329927 4.394866zm-8.2340824-37h-2.7469734c1.3849879-1.6029329 3.0794996-2.963339 5-4-.8934625 1.2382027-1.64205 2.5865764-2.2530266 4zm-.0523406 22c.6155543 1.414084 1.3789723 2.75917 2.3053672 4-1.9181439-1.041418-3.6140838-2.40091-5-4zm-7.6946328-13c.1909896-1.4015337.6030035-2.7450914 1.2048518-4h3.7951482c-.3446284 1.3277155-.5664228 2.674981-.671159 4zm4.3703733 4c.0962362 1.3491783.3011766 2.6919511.6296267 4h-3.7808774c-.6089769-1.254783-1.0270397-2.5975558-1.2191226-4zm11.6281702 9 .0014565 5c-1.7252617-1.303318-3.0350478-3.036233-4-5zm-.0006152-9 .0020717 4h-6.2061087c-.4180774-1.3097345-.674559-2.662284-.7938913-4zm-3.9979283-13c.9658572-1.9632466 2.2764287-3.6971669 3.9981742-5l.0018258 5zm3.9991709 5 .0008291 4h-7c.1193959-1.3381647.3768434-2.6891379.7955582-4zm-23.9991709 6.6464915c0-14.0576474 10.5718299-25.5799869 24-26.6464915l-.0153237 5.0678631c-10.7016984 1.0582463-19.068829 10.3158365-19.068829 21.5786284 0 5.2349961 1.8078151 10.0378065 4.8185417 13.7847295l-3.5010855 3.568779c-3.8868599-4.669497-6.2333035-10.7299329-6.2333035-17.3535085zm57-.1464915c0-16.8450958-13.655037-30.5-30.4996121-30.5-16.8445747 0-30.5003879 13.6549042-30.5003879 30.5 0 16.844708 13.6546494 30.5 30.5003879 30.5 16.8445751 0 30.4996121-13.655292 30.4996121-30.5zm-78.1811223-3.0372345-.057436-.0181247c-5.6542083-1.7242614-9.1177598-7.4931461-7.2543262-13.5532341 1.0763179-3.5049106 2.720524-5.3596697 5.1142292-6.8914067l1.996507 3.0570296c-1.806402 1.1478965-3.110037 2.4162215-3.8951302 4.9718016-1.1398211 3.7054904 1.255502 7.5128819 5.1202963 8.6925972l.057436.017722c4.1535922 1.266311 8.0511493-.5300463 9.313932-4.6370991.5836628-1.8958417.5076208-3.8049749-.0376166-5.3226149l-3.7794493-1.1527297-1.5786805 5.1425763-3.0869818-.9400668 2.6307298-8.561294 8.4819191 2.5865934c1.0916881 2.499595 1.6603852 5.7849956.5658658 9.3470997-1.9338129 6.2896673-7.7073424 9.0542853-13.5912946 7.2611502zm40.0525695 53.5372345-2.455816-3.694616c1.2787681-3.334591.873417-7.501379-2.1804831-8.445722-1.1476026-.354999-2.2152822-.143469-3.1456778.438141l-2.0894703-3.142396c1.8087838-1.113335 3.9781772-1.517832 6.3422155-.786566 6.6684085 2.062705 6.8859979 10.391641 3.5292317 15.631159zm-21.6475378-14.703406c-2.2205539 1.034696-4.8886164.675482-7.2242329.380486l-4.0225579-.466777 5.4083287 6.243494-2.7198021 2.546203-9.6656452-11.158902 2.1564586-2.016814 9.0849266 1.091287c2.0931356.228773 6.8307805.777828 6.8674616-2.692296.033206-2.996525-3.3449241-3.528321-5.5357471-3.266236l-.9158674.109972-.388819-3.783584c1.0154855-.13927 2.0271097-.279344 3.0534064-.283427 6.95511-.030433 11.1286393 9.934033 3.9020897 13.296594zm17.5228214 14.072548 2.2532692 3.374735c-2.0959994 1.905598-4.8773599 2.835207-8.0546891 1.871506-1.2857007-.391664-2.3913793-1.020785-3.290292-1.901634-4.1904022-4.103754-3.0480007-11.602066.833051-15.713749l2.3183326 3.47067c-2.3422823 3.477409-2.627284 9.37497 1.2952806 10.567406.6821678.20495 1.3228227.224771 1.9399271.072149 1.0394177-.253314 1.9542969-.885209 2.7051206-1.741083zm21.2751152-1.925689-2.5541007 3.556547c-3.8736928-5.077775-3.5349654-13.613638 3.5201157-15.634301 2.681726-.767003 5.076095-.272829 7.012139.972564l-2.263132 3.149182c-1.079594-.757983-2.344604-1.084551-3.687875-.700862-3.4550995.989475-3.6316872 5.373904-2.027147 8.65687zm9.016482-9.443453c4.19725 4.98939 4.470205 14.445519-2.702861 16.637526-1.228296.375119-2.442487.464706-3.626562.242455-1.397939-.262659-2.643772-.880234-3.708905-1.743694l2.146278-3.236928c1.13909 1.158143 2.587732 1.755894 4.18162 1.267934.649983-.198234 1.167682-.52532 1.574826-.97592 1.911446-2.110045 1.479522-6.031261-.158206-8.731432zm23.876184.90632c-1.145641 1.210904-2.414555 2.080201-3.809526 2.563231-1.773139.615049-3.152998.599379-4.976639.428184l.080326-3.829763c2.616165.164927 5.46138-.066989 6.700072-2.779477 1.185009-2.595354-1.810519-5.571098-5.448655-1.727232l-1.276469 1.346841-2.318323-1.027564-.695497-7.168661-5.412866 5.717613-2.756935-2.53189 9.369921-9.897602 2.078537 1.910572.651357 7.212538.663685-.40468c6.675417-3.736526 12.483552 4.55607 7.151012 10.18789zm-65.5324728-80.4823117c-1.5156835-5.5716723 1.5641663-11.3950495 7.7186998-13.0297575 2.4777888-.6581241 4.8407291-.457467 6.899261.3431983l-1.8332061 3.0546225c-1.2943317-.4833835-2.7539819-.5843011-4.2529746-.1861281-3.9799608 1.056297-5.9005949 4.9320039-4.8558303 8.7802235l.0162934.0565453c.3552756 1.3044679 1.0328425 2.424771 1.9059303 3.3200711l-1.9432859 3.2372166c-1.7179601-1.3680813-3.0226242-3.2556723-3.6385942-5.5198391zm57.6179608 28.5987204 20.281635-4.0227287.718365 3.5019985-17.036922 3.3794966 2.151137 10.4748839-3.243922.643621zm-14-17.4089846 20.853048-6.6137441 2.146952 2.4039024-9.252339 19.5960976-2.447936-2.7409157.613414-1.2535387.022889-.0463158 1.635391-3.3373727 1.47746-2.9724947 1.249718-2.6177835.001907-.0048951 2.450607-5.1331451-8.237992 2.6757724 2.620365 2.934463-1.463727 2.9901925-4.332051-4.8473427-4.964539 1.624065zm-28.5368096-19.4990241 1.9682314-3.11472c1.9698819 1.3621089 3.4739077 3.3177191 4.1580435 5.7041215l.0140293.0581105c1.5733472 5.4964735-1.624513 11.2393353-8.0140439 12.8517065-2.7493346.6934514-5.3559001.4125842-7.5894507-.5218318l1.9178909-3.0353024c1.4421318.6093849 3.098417.796888 4.8211353.3610596 4.1295722-1.042114 6.1324642-4.8382758 5.0476675-8.6348251l-.0169177-.0553986c-.4130397-1.4442383-1.2300414-2.6835405-2.3065856-3.6129202zm-21.5822129 28.88528-13.8809775-14.5419499 2.5356972-2.4580501 11.6588404 12.2152842 7.5837087-7.3579205 2.2217537 2.327052zm38.645262-23 5.2396885 1.7524852c2.607826.872843 3.590643 2.3618605 3.120829 4.1534409l-.013895.0607675c-.500234 1.9156652-2.135384 2.4617232-4.39207 1.7057409l-5.480792-1.8345001zm1.9623935-8 4.787675 1.4913961c2.138232.6631961 3.055536 2.0015164 2.616546 3.5676612l-.017015.0564591c-.512344 1.8206086-2.19495 2.2543897-4.333182 1.5915912l-4.542657-1.415057zm9.629784 14.3681021.015038-.053945c.795845-2.5655966-.424635-4.2884432-2.511401-5.7004455 1.698144-.3127304 3.435863-1.1422771 4.13752-3.4098555l.017808-.0562085c.394559-1.2682746.258422-2.4207371-.358941-3.5060513-.796636-1.39729-2.398614-2.4939213-4.661091-3.1340944l-8.8924014-2.5075019-5.8649486 18.8947266 9.174173 2.5863447c4.41929 1.246772 7.895518.261426 8.944244-3.1129692zm-21.6188102 97.6318979c-33.9109283 0-61.4996068-27.58916-61.4996068-61.5005898 0-33.9106435 27.5886785-61.4994102 61.4996068-61.4994102 33.9113212 0 61.5003932 27.5887667 61.5003932 61.4994102 0 33.9114298-27.589072 61.5005898-61.5003932 61.5005898zm.4998075-127c-36.3922625 0-65.9994143 29.6067614-65.9994143 65.9990238 0 36.3926532 29.6071518 66.0009762 65.9994143 66.0009762 36.3926527 0 66.0005857-29.608323 66.0005857-66.0009762 0-36.3922624-29.607933-65.9990238-66.0005857-65.9990238z" fill="none" stroke="#fff"/></svg>

<?xml version="1.0" encoding="UTF-8"?>
<svg width="180px" height="180px" viewBox="0 0 180 180" version="1.1" xmlns="http://www.w3.org/2000/svg" xmlns:xlink="http://www.w3.org/1999/xlink">
    <title>Global 2003</title>
    <g id="Global-2003" stroke="none" stroke-width="1" fill="none" fill-rule="evenodd">
        <path d="M92,116 L92.0168572,110.932258 C102.717706,109.871596 111.083456,100.615082 111.083456,89.352866 C111.083456,84.1171959 109.277058,79.3164881 106.267671,75.5701504 L109.767065,72 C113.653023,76.6685675 116,82.7281487 116,89.352866 C116,103.411267 105.427495,114.933045 92,116 L92,116 Z M92,79 L92,74 C93.7315656,75.328089 95.0414094,77.0514198 96,79 L92,79 Z M92,88 L92,84 L98.2199693,84 C98.6325372,85.3037836 98.8828919,86.6523974 99,88 L92,88 Z M96,101 C95.036592,102.964914 93.7247406,104.697829 92,106 L92,101 L96,101 Z M92,96 L92,92 L99,92 C98.8819806,93.337716 98.6260648,94.6902655 98.2082347,96 L92,96 Z M103.628458,88 C103.53339,86.6507121 103.326892,85.3078284 103,84 L106.779709,84 C107.388685,85.2549086 107.805579,86.5974551 108,88 L103.628458,88 Z M103,96 C103.345704,94.6720607 103.567447,93.3245681 103.672159,92 L108,92 C107.8079,93.4014328 107.395981,94.7442056 106.794272,96 L103,96 Z M98,75 C99.9186474,76.0409401 101.613085,77.4010614 103,79 L100.305807,79 C99.6895369,77.585671 98.9270604,76.2403336 98,75 L98,75 Z M100.252623,101 L103,101 C101.615012,102.602331 99.9192897,103.961737 98,105 C98.8926554,103.761681 99.64205,102.41318 100.252623,101 L100.252623,101 Z M92.0156532,64 C98.0956696,64.4100985 103.629885,66.5070713 108,69.7513904 L104.235003,73 C100.841151,70.5748053 96.622625,68.9883998 92,68.6040442 L92.0156532,64 Z M87.9810558,116 C81.9036833,115.589479 76.3699261,113.491815 72,110.24698 L75.7670073,107 C79.1592494,109.424507 83.3784459,111.011165 88,111.394866 L87.9810558,116 Z M79.7469734,79 L77,79 C78.3849879,77.3970671 80.0794996,76.036661 82,75 C81.1065375,76.2382027 80.35795,77.5865764 79.7469734,79 L79.7469734,79 Z M79.6946328,101 C80.3101871,102.414084 81.0736051,103.75917 82,105 C80.0818561,103.958582 78.3859162,102.59909 77,101 L79.6946328,101 Z M72,88 C72.1909896,86.5984663 72.6030035,85.2549086 73.2048518,84 L77,84 C76.6553716,85.3277155 76.4335772,86.674981 76.328841,88 L72,88 Z M76.3703733,92 C76.4666095,93.3491783 76.6715499,94.6919511 77,96 L73.2191226,96 C72.6101457,94.745217 72.1920829,93.4024442 72,92 L76.3703733,92 Z M87.9985435,101 L88,106 C86.2747383,104.696682 84.9649522,102.963767 84,101 L87.9985435,101 Z M87.9979283,92 L88,96 L81.7938913,96 C81.3758139,94.6902655 81.1193323,93.337716 81,92 L87.9979283,92 Z M84,79 C84.9658572,77.0367534 86.2764287,75.3028331 87.9981742,74 L88,79 L84,79 Z M87.9991709,84 L88,88 L81,88 C81.1193959,86.6618353 81.3768434,85.3108621 81.7955582,84 L87.9991709,84 Z M64,90.6464915 C64,76.5888441 74.5718299,65.0665046 88,64 L87.9846763,69.0678631 C77.2829779,70.1261094 68.9158473,79.3836996 68.9158473,90.6464915 C68.9158473,95.8814876 70.7236624,100.684298 73.734389,104.431221 L70.2333035,108 C66.3464436,103.330503 64,97.2700671 64,90.6464915 L64,90.6464915 Z M121,90.5 C121,73.6549042 107.344963,60 90.5003879,60 C73.6558132,60 60,73.6549042 60,90.5 C60,107.344708 73.6546494,121 90.5003879,121 C107.344963,121 121,107.344708 121,90.5 L121,90.5 Z M42.8188777,87.4627655 L42.7614417,87.4446408 C37.1072334,85.7203794 33.6436819,79.9514947 35.5071155,73.8914067 C36.5834334,70.3864961 38.2276395,68.531737 40.6213447,67 L42.6178517,70.0570296 C40.8114497,71.2049261 39.5078147,72.4732511 38.7227215,75.0288312 C37.5829004,78.7343216 39.9782235,82.5417131 43.8430178,83.7214284 L43.9004538,83.7391504 C48.054046,85.0054614 51.9516031,83.2091041 53.2143858,79.1020513 C53.7980486,77.2062096 53.7220066,75.2970764 53.1767692,73.7794364 L49.3973199,72.6267067 L47.8186394,77.769283 L44.7316576,76.8292162 L47.3623874,68.2679222 L55.8443065,70.8545156 C56.9359946,73.3541106 57.5046917,76.6395112 56.4101723,80.2016153 C54.4763594,86.4912826 48.7028299,89.2559006 42.8188777,87.4627655 L42.8188777,87.4627655 Z M82.8714472,141 L80.4156312,137.305384 C81.6943993,133.970793 81.2890482,129.804005 78.2351481,128.859662 C77.0875455,128.504663 76.0198659,128.716193 75.0894703,129.297803 L73,126.155407 C74.8087838,125.042072 76.9781772,124.637575 79.3422155,125.368841 C86.010624,127.431546 86.2282134,135.760482 82.8714472,141 L82.8714472,141 Z M61.2239094,126.296594 C59.0033555,127.33129 56.335293,126.972076 53.9996765,126.67708 L49.9771186,126.210303 L55.3854473,132.453797 L52.6656452,135 L43,123.841098 L45.1564586,121.824284 L54.2413852,122.915571 C56.3345208,123.144344 61.0721657,123.693399 61.1088468,120.223275 C61.1420528,117.22675 57.7639227,116.694954 55.5730997,116.957039 L54.6572323,117.067011 L54.2684133,113.283427 C55.2838988,113.144157 56.295523,113.004083 57.3218197,113 C64.2769297,112.969567 68.450459,122.934033 61.2239094,126.296594 L61.2239094,126.296594 Z M78.7467308,140.369142 L81,143.743877 C78.9040006,145.649475 76.1226401,146.579084 72.9453109,145.615383 C71.6596102,145.223719 70.5539316,144.594598 69.6550189,143.713749 C65.4646167,139.609995 66.6070182,132.111683 70.4880699,128 L72.8064025,131.47067 C70.4641202,134.948079 70.1791185,140.84564 74.1016831,142.038076 C74.7838509,142.243026 75.4245058,142.262847 76.0416102,142.110225 C77.0810279,141.856911 77.9959071,141.225016 78.7467308,140.369142 L78.7467308,140.369142 Z M100.021846,138.443453 L97.4677453,142 C93.5940525,136.922225 93.9327799,128.386362 100.987861,126.365699 C103.669587,125.598696 106.063956,126.09287 108,127.338263 L105.736868,130.487445 C104.657274,129.729462 103.392264,129.402894 102.048993,129.786583 C98.5938935,130.776058 98.4173058,135.160487 100.021846,138.443453 L100.021846,138.443453 Z M109.038328,129 C113.235578,133.98939 113.508533,143.445519 106.335467,145.637526 C105.107171,146.012645 103.89298,146.102232 102.708905,145.879981 C101.310966,145.617322 100.065133,144.999747 99,144.136287 L101.146278,140.899359 C102.285368,142.057502 103.73401,142.655253 105.327898,142.167293 C105.977881,141.969059 106.49558,141.641973 106.902724,141.191373 C108.81417,139.081328 108.382246,135.160112 106.744518,132.459941 L109.038328,129 Z M132.914512,129.90632 C131.768871,131.117224 130.499957,131.986521 129.104986,132.469551 C127.331847,133.0846 125.951988,133.06893 124.128347,132.897735 L124.208673,129.067972 C126.824838,129.232899 129.670053,129.000983 130.908745,126.288495 C132.093754,123.693141 129.098226,120.717397 125.46009,124.561263 L124.183621,125.908104 L121.865298,124.88054 L121.169801,117.711879 L115.756935,123.429492 L113,120.897602 L122.369921,111 L124.448458,112.910572 L125.099815,120.12311 L125.7635,119.71843 C132.438917,115.981904 138.247052,124.2745 132.914512,129.90632 L132.914512,129.90632 Z M67.3820392,49.4240083 C65.8663557,43.852336 68.9462055,38.0289588 75.100739,36.3942508 C77.5785278,35.7361267 79.9414681,35.9367838 82,36.7374491 L80.1667939,39.7920716 C78.8724622,39.3086881 77.412812,39.2077705 75.9138193,39.6059435 C71.9338585,40.6622405 70.0132244,44.5379474 71.057989,48.386167 L71.0742824,48.4427123 C71.429558,49.7471802 72.1071249,50.8674833 72.9802127,51.7627834 L71.0369268,55 C69.3189667,53.6319187 68.0143026,51.7443277 67.3983326,49.4801609 L67.3820392,49.4240083 Z M125,78.0227287 L145.281635,74 L146,77.5019985 L128.963078,80.8814951 L131.114215,91.356379 L127.870293,92 L125,78.0227287 Z M111,60.6137441 L131.853048,54 L134,56.4039024 L124.747661,76 L122.299725,73.2590843 L122.913139,72.0055456 L122.936028,71.9592298 L124.571419,68.6218571 L126.048879,65.6493624 L127.298597,63.0315789 L127.300504,63.0266838 L129.751111,57.8935387 L121.513119,60.5693111 L124.133484,63.5037741 L122.669757,66.4939666 L118.337706,61.6466239 L113.373167,63.2706889 L111,60.6137441 Z M82.4631904,41.11472 L84.4314218,38 C86.4013037,39.3621089 87.9053295,41.3177191 88.5894653,43.7041215 L88.6034946,43.762232 C90.1768418,49.2587055 86.9789816,55.0015673 80.5894507,56.6139385 C77.8401161,57.3073899 75.2335506,57.0265227 73,56.0921067 L74.9178909,53.0568043 C76.3600227,53.6661892 78.0163079,53.8536923 79.7390262,53.4178639 C83.8685984,52.3757499 85.8714904,48.5795881 84.7866937,44.7830388 L84.769776,44.7276402 C84.3567363,43.2834019 83.5397346,42.0440997 82.4631904,41.11472 L82.4631904,41.11472 Z M60.8809775,70 L47,55.4580501 L49.5356972,53 L61.1945376,65.2152842 L68.7782463,57.8573637 L71,60.1844157 L60.8809775,70 Z M99.5262395,47 L104.765928,48.7524852 C107.373754,49.6253282 108.356571,51.1143457 107.886757,52.9059261 L107.872862,52.9666936 C107.372628,54.8823588 105.737478,55.4284168 103.480792,54.6724345 L98,52.8379344 L99.5262395,47 Z M101.488633,39 L106.276308,40.4913961 C108.41454,41.1545922 109.331844,42.4929125 108.892854,44.0590573 L108.875839,44.1155164 C108.363495,45.936125 106.680889,46.3699061 104.542657,45.7071076 L100,44.2920506 L101.488633,39 Z M111.118417,53.3681021 L111.133455,53.3141571 C111.9293,50.7485605 110.70882,49.0257139 108.622054,47.6137116 C110.320198,47.3009812 112.057917,46.4714345 112.759574,44.2038561 L112.777382,44.1476476 C113.171941,42.879373 113.035804,41.7269105 112.418441,40.6415963 C111.621805,39.2443063 110.019827,38.147675 107.75735,37.5075019 L98.8649486,35 L93,53.8947266 L102.174173,56.4810713 C106.593463,57.7278433 110.069691,56.7424973 111.118417,53.3681021 L111.118417,53.3681021 Z M89.4996068,151 C55.5886785,151 28,123.41084 28,89.4994102 C28,55.5887667 55.5886785,28 89.4996068,28 C123.410928,28 151,55.5887667 151,89.4994102 C151,123.41084 123.410928,151 89.4996068,151 L89.4996068,151 Z M89.9994143,24 C53.6071518,24 24,53.6067614 24,89.9990238 C24,126.391677 53.6071518,156 89.9994143,156 C126.392067,156 156,126.391677 156,89.9990238 C156,53.6067614 126.392067,24 89.9994143,24 L89.9994143,24 Z" id="Fill-1-Copy" stroke="#FFFFFF"></path>
    </g>
</svg>
